X:1
T:Lamb Skinnet
R:Jig
M:6/8
L:1/8
K:Hp
N:From the North American Association of Lowland and Border Pipers
N:Journal No. 7. 
{g}A{d}ce {g}ec{d}A | {Gdc}d2f {g}f2a | A{d}ce {g}ec{d}A | {g}G2{d}B {g}Bcd |
{g}A{d}ce {g}ec{d}A | {Gdc}d2f {g}fga | gfe {g}fed | {g}efe {gde}dcB :|
aec aec | {Gdc}d2f {g}f2a | {ef}ec{d}A {g}ec{d}A | {g}G2{d}B {g}Bcd |
{gef}ec{d}A {g}ec{d}A | {Gdc}d2f {g}fga | ec{d}A {gde}dB{d}G | {g}A3 {GAG}A2e :|]
